X:1
T:The Power of God
T:Frederick Arthur Graves, 1899
T:The Power of God
T:Public Domain
T:Public Domain
T:Public Domain
T:Public Domain
T:Public Domain
C:Frederick Arthur Graves, 1899
Z:Public Domain
%%score ( 1 2 ) ( 3 4 ) 5
L:1/8
M:4/4
K:Bb
V:1 treble 
V:2 treble 
V:3 bass 
V:4 bass 
V:5 bass 
V:1
 F2 | F>F D>E F/ d3 B/ | c>B B>G F2- F>F | F>F D>F B>B A>B | c6 (F>F) | F>F D>E F<d (B>B) | %6
w: 1.~When|bra- ham and Sa- rah had prom-|ised them a son, They * were|sur- prised and knew not what to say;|But~they knew *|what God had prom- ised He~was a- *|
w: 2.~When|ses want- ed wa- ter to quench|the peo- ple’s thirst, He * knew|that God would then pro- vide a way;|Al- though *|his rod was use- ful he had *|
w: 3.~When|ses made a ser- pent and placed|it on a pole, The * bit-|ten ones were told to look that way,|And then *|while they were look- ing Jehovah- roph- *|
w: 4.~When|a was com- mand- er, he spoke—|the sun stood still, The * moon|its on- ward course was made to stay;|Thus he *|won a might- y bat- tle,~for~he did *|
w: 5.~When|a- man, the le- per, be- fore|E- li- sha stood, He * thought|he knew just what the seer would say,|But~he had *|to wash in Jor- dan, though~he thought *|
 c>B B>G F2 F>F | G>G B>B A>A c>B | B6 z ||"^Refrain" [Dd] | %10
w: ble to per- form: And the pow’r|of God is just the same to- day.|||
w: the pow- er first: And the pow’r|of God is just the same to- day.|The|pow’r|
w: i made them whole: And the pow’r|of God is just the same to- day.|||
w: his Fa- ther’s will: And the pow’r|of God is just the same to- day.|||
w: it was- n’t good: And the pow’r|of God is just the same to- day.|||
 [Fc]>[Fc] [Fc]>[Fc] [Fc]>[Fc] [FB]>[Fc] | [Fd]6 z [DB] | [Fc]>[Fc] [Fc]>[Fc] | %13
w: |||
w: of God is just the same to- day,|It does-|n’t mat- ter what|
w: |||
w: |||
w: |||
 [=Ec]>[EB] [EA]>[EG] | (C>C D>D E2) z [DF] | [DF]>[DF] [B,D]>[CE] [DF]/ [Fd]3 [DB]/ | %16
w: |||
w: the peo- ple say;|What- * * * * ev-|God has prom- ised He’s a- ble|
w: |||
w: |||
w: |||
 [Ec]>[EB] [EB]>[EG] [DF]2 [DF]>[DF] | [EG]>[EG] [EB]>[EB] [EA]>[EA] [Ec]>[Ec] | [DB]6 |] %19
w: |||
w: to per- form: And the pow’r of|God is just the same to- day. *||
w: |||
w: |||
w: |||
V:2
 F2 | x8 | x8 | x8 | x8 | x8 | x8 | x8 | x7 || x | x8 | x8 | x4 | x4 | F6 x2 | x8 | x8 | x8 | x6 |] %19
w: A-|||||||||||||||||||
w: Mo-||||||||||||||er|||||
w: Mo-|||||||||||||||||||
w: Joshu-|||||||||||||||||||
w: Na-|||||||||||||||||||
V:3
 [F,B,D]2 | z2 [F,B,D]2 z2 [F,B,D]2 | z2 [G,B,E]2 z2 [F,B,D]3/2 z/ | z2 [F,B,D]2 z2 [F,B,D]2 | %4
w: ~|~ ~|~ ~|~ ~|
 z2 ([F,A,CE]2 [F,A,CE]2 [F,A,CE]2) | z2 [F,B,D]2 z2 [F,B,D]2 | z2 [G,B,E]2 z2 [F,B,D]2 | %7
w: ~ * *|~ ~|~ ~|
 z2 [G,B,E]2 z2 [F,A,CE]2 | [F,B,D]6 z || [B,,B,] | %10
w: ~ ~|~|~|
 [F,A,]>[F,A,] [F,A,]>[F,A,] [F,A,]>[F,A,] [G,A,]>[F,A,] | B,,>B,, D,>F, B,2 z [B,,B,] | %12
w: ~ ~ ~ ~ ~ ~ ~ is|just the same to- day, ~|
 [F,A,]>[F,A,] [F,A,]>[F,A,] | [C,G,]>[C,G,] [C,C]>[C,B,] | A,>A, B,>B, C2 z [B,,B,] | %15
w: ~ ~ ~ ~|~ ~ ~ what|the peo- ple say; * *|
 [B,,B,]>[B,,B,] [B,,F,]>[B,,F,] [B,,B,]/ [B,,B,]3 [B,,B,]/ | %16
w: |
 [E,G,]>[E,G,] [E,G,]>[E,B,] [B,,B,]2 [B,,B,]>[B,,B,] | %17
w: |
 [E,B,]>[E,B,] [E,G,]>[E,G,] [F,C]>[F,C] [F,A,]>[F,A,] | [B,,B,]6 |] %19
w: ||
V:4
 x2 | x8 | x8 | x8 | x8 | x8 | x8 | x8 | x7 || x | x8 | B,6 x2 | x4 | x4 | F,6 x2 | x8 | x8 | x8 | %18
w: |||||||||||~|||||||
 x6 |] %19
w: |
V:5
 z2 | [B,,,B,,]2 z2 [B,,,B,,]2 z2 | [E,,E,]2 z2 [B,,,B,,]2 z3/2 z/ | [B,,,B,,]2 z2 [B,,,B,,]2 z2 | %4
 [F,,,F,,]6 z2 | [B,,,B,,]2 z2 [B,,,B,,]2 z2 | [E,,E,]2 z2 [B,,,B,,]2 z2 | [E,,E,]2 z2 F,,2 z2 | %8
 B,,6 z || x | x8 | x8 | x4 | x4 | x8 | x8 | x8 | x8 | x6 |] %19

